report_00007_2020-12-11T15:55:29.892Z/network-rtt/comparison/line/0_vs_1.svg

<svg width="640" height="500" xmlns="http://www.w3.org/2000/svg" xmlns:xlink="http://www.w3.org/1999/xlink"><path fill="#fff" d="M0 0h640v500H0z"/><defs><path id="d" stroke-width=".222" stroke="currentColor" d="M-1-1h2v2h-2z"/><path id="b" stroke-width=".222" stroke="currentColor" d="M0-1.33l-1.33 2h2.66z"/><path id="f" stroke-width=".222" stroke="currentColor" d="M0 1.33L1.265.411.782-1.067l-1.564-.009-.483 1.487z"/><use xlink:href="#b" id="c" stroke="currentColor" transform="rotate(180)"/><use xlink:href="#d" id="e" stroke="currentColor" transform="rotate(45)"/><circle id="a" stroke-width=".222" stroke="currentColor" cx="0" cy="0" r="1"/></defs><g fill="none" color="#000" stroke="currentColor"><path stroke="#000" d="M37.3 440.1h9m568.7 0h-9"/><text transform="translate(29 444)" stroke="none" fill="#000" font-family="Arial" font-size="12" text-anchor="end"><tspan>0</tspan></text></g><g fill="none" color="#000" stroke="currentColor"><path stroke="#000" d="M37.3 363.8h9m568.7 0h-9"/><text transform="translate(29 367.7)" stroke="none" fill="#000" font-family="Arial" font-size="12" text-anchor="end"><tspan>1</tspan></text></g><g fill="none" color="#000" stroke="currentColor"><path stroke="#000" d="M37.3 287.5h9m568.7 0h-9"/><text transform="translate(29 291.4)" stroke="none" fill="#000" font-family="Arial" font-size="12" text-anchor="end"><tspan>2</tspan></text></g><g fill="none" color="#000" stroke="currentColor"><path stroke="#000" d="M37.3 211.2h9m568.7 0h-9"/><text transform="translate(29 215.1)" stroke="none" fill="#000" font-family="Arial" font-size="12" text-anchor="end"><tspan>3</tspan></text></g><g fill="none" color="#000" stroke="currentColor"><path stroke="#000" d="M37.3 134.9h9m568.7 0h-9"/><text transform="translate(29 138.8)" stroke="none" fill="#000" font-family="Arial" font-size="12" text-anchor="end"><tspan>4</tspan></text></g><g fill="none" color="#000" stroke="currentColor"><path stroke="#000" d="M37.3 58.7h9m568.7 0h-9"/><text transform="translate(29 62.6)" stroke="none" fill="#000" font-family="Arial" font-size="12" text-anchor="end"><tspan>5</tspan></text></g><g fill="none" color="#000" stroke="currentColor"><path stroke="#000" d="M37.3 446v-9m0-418.9v9"/><text transform="translate(37.3 467.9)" stroke="none" fill="#000" font-family="Arial" font-size="12" text-anchor="middle"><tspan>0</tspan></text></g><g fill="none" color="#000" stroke="currentColor"><path stroke="#000" d="M95.7 446v-9m0-418.9v9"/><text transform="translate(95.7 467.9)" stroke="none" fill="#000" font-family="Arial" font-size="12" text-anchor="middle"><tspan>10</tspan></text></g><g fill="none" color="#000" stroke="currentColor"><path stroke="#000" d="M154 446v-9m0-418.9v9"/><text transform="translate(154 467.9)" stroke="none" fill="#000" font-family="Arial" font-size="12" text-anchor="middle"><tspan>20</tspan></text></g><g fill="none" color="#000" stroke="currentColor"><path stroke="#000" d="M212.4 446v-9m0-418.9v9"/><text transform="translate(212.4 467.9)" stroke="none" fill="#000" font-family="Arial" font-size="12" text-anchor="middle"><tspan>30</tspan></text></g><g fill="none" color="#000" stroke="currentColor"><path stroke="#000" d="M270.7 446v-9m0-418.9v9"/><text transform="translate(270.7 467.9)" stroke="none" fill="#000" font-family="Arial" font-size="12" text-anchor="middle"><tspan>40</tspan></text></g><g fill="none" color="#000" stroke="currentColor"><path stroke="#000" d="M329.1 446v-9m0-418.9v9"/><text transform="translate(329.1 467.9)" stroke="none" fill="#000" font-family="Arial" font-size="12" text-anchor="middle"><tspan>50</tspan></text></g><g fill="none" color="#000" stroke="currentColor"><path stroke="#000" d="M387.4 446v-9m0-418.9v9"/><text transform="translate(387.4 467.9)" stroke="none" fill="#000" font-family="Arial" font-size="12" text-anchor="middle"><tspan>60</tspan></text></g><g fill="none" color="#000" stroke="currentColor"><path stroke="#000" d="M445.8 446v-9m0-418.9v9"/><text transform="translate(445.8 467.9)" stroke="none" fill="#000" font-family="Arial" font-size="12" text-anchor="middle"><tspan>70</tspan></text></g><g fill="none" color="#000" stroke="currentColor"><path stroke="#000" d="M504.1 446v-9m0-418.9v9"/><text transform="translate(504.1 467.9)" stroke="none" fill="#000" font-family="Arial" font-size="12" text-anchor="middle"><tspan>80</tspan></text></g><g fill="none" color="#000" stroke="currentColor"><path stroke="#000" d="M562.5 446v-9m0-418.9v9"/><text transform="translate(562.5 467.9)" stroke="none" fill="#000" font-family="Arial" font-size="12" text-anchor="middle"><tspan>90</tspan></text></g><path stroke="#000" d="M37.3 18.1V446H615V18.1H37.3z" fill="none" color="#000"/><text transform="translate(267.3 485.9)" stroke="none" fill="#000" font-family="Arial" font-size="12" text-anchor="end" color="#000"><tspan>empty</tspan></text><path stroke="#9400D3" d="M275.6 482h42.2M37.3 416.4l5.8 20.4 5.9.9 5.8-.4 5.8.5 5.9-.1H84l5.8-.4 5.9.3 5.8.1 5.8-.5 5.9.6 5.8-.1h23.3l5.9.1 5.8-.2 5.8-1.7 5.9 1.8H194.9l5.8-.1 5.8-.1h11.7l5.8.2 5.9-.8 5.8.8 5.8-.1 5.9.1H259l5.9-.1 5.8.1 5.8-.1h5.9l5.8.1h5.9l5.8-.2 5.8.2 5.9-1.1 5.8 1.2 5.8-.7 5.9-.1 5.8.7h11.7l5.8-.2 5.8.2 5.9-.2 5.8.2 5.9-.4 5.8.4 5.8-.3 5.9.3 5.8-.2 5.8.1 5.9.1h5.8l5.8-.4 5.9.2 5.8.2 5.8-.8 5.9.8 5.8-.1 5.8.1h5.9l5.8-.4 5.9.4h5.8l5.8-1.4 5.9 1.4 5.8-.1 5.8.1h5.9l5.8-.2 5.8.2h5.9l5.8-.5 5.8-.4 5.9.1 5.8.7 5.8-.2 5.9.2h5.8l5.9-.2 5.8.4 5.8-.1 5.9-.6 5.8.4 5.8-.6 5.9.8 5.8-.6" fill="none" color="#000"/><text transform="translate(367.6 485.9)" stroke="none" fill="#000" font-family="Arial" font-size="12" text-anchor="end" color="#000"><tspan>pages</tspan></text><path stroke="#009E73" d="M375.9 482h42.2M37.3 228.1l5.8-168.9L49 32.5l5.8 272.9 5.8-112.9 5.9-74.5 5.8-6.2 5.8 80.5 5.9-88 5.8 19.1 5.9 24 5.8 54.4 5.8-73 5.9 73 5.8-100.6 5.8 232.1 5.9-271.4 5.8 41.7 5.8 131.5 5.9-19.9L154 61.1l5.8 87.5h5.9l5.8 133.4 5.8-169.2 5.9 87.8 5.8-64 5.9 193.4 5.8-155.8 5.8-113.3 5.9 69.2 5.8 7.6L224 162l5.9-25.3 5.8 169.7 5.8-160.8 5.9-37 5.8-7.1 5.8 205.8 5.9-186.7 5.8 53.5 5.8-35.8 5.9-65.1 5.8 258.1 5.9-216.6 5.8 199.3 5.8-154 5.9-73 5.8 17.3 5.8 203.1 5.9 20.5 5.8 3.8 5.8-89.1 5.9 91.9 5.8-179.1 5.8 45.7 5.9-158.9 5.8 109.3 5.9-57.7 5.8 183.4 5.8-34.3 5.9-66.6 5.8 1.6 5.8 6.5 5.9 58.2 5.8-57.1 5.8-14.1 5.9 39.7 5.8 11 5.8-25.7 5.9-54 5.8 36.4 5.8 120.6 5.9-109.1 5.8-64.4 5.9 98 5.8-110.8 5.8 92.3 5.9-50.1 5.8 94.4 5.8 67.9 5.9-162.4 5.8 26.9 5.8-17.1 5.9-38.9 5.8 187 5.8-253.9 5.9-32.9 5.8 137 5.8 159.7 5.9-150.2 5.8 151.9 5.9-162.1 5.8 24.3 5.8 36.7 5.9 77.7 5.8-117.3 5.8-7.9 5.9-31.1 5.8 178.1" fill="none" color="#000"/><g fill="none" color="#000" stroke="currentColor"><path stroke="#000" d="M37.3 18.1V446H615V18.1H37.3z"/></g></svg>

<?xml version="1.0" encoding="utf-8"  standalone="no"?>
<svg 
 width="640" height="500"
 viewBox="0 0 640 500"
 xmlns="http://www.w3.org/2000/svg"
 xmlns:xlink="http://www.w3.org/1999/xlink"
>

<title>Gnuplot</title>
<desc>Produced by GNUPLOT 5.4 patchlevel 0 </desc>

<g id="gnuplot_canvas">

<rect x="0" y="0" width="640" height="500" fill="#ffffff"/>
<defs>

	<circle id='gpDot' r='0.5' stroke-width='0.5' stroke='currentColor'/>
	<path id='gpPt0' stroke-width='0.222' stroke='currentColor' d='M-1,0 h2 M0,-1 v2'/>
	<path id='gpPt1' stroke-width='0.222' stroke='currentColor' d='M-1,-1 L1,1 M1,-1 L-1,1'/>
	<path id='gpPt2' stroke-width='0.222' stroke='currentColor' d='M-1,0 L1,0 M0,-1 L0,1 M-1,-1 L1,1 M-1,1 L1,-1'/>
	<rect id='gpPt3' stroke-width='0.222' stroke='currentColor' x='-1' y='-1' width='2' height='2'/>
	<rect id='gpPt4' stroke-width='0.222' stroke='currentColor' fill='currentColor' x='-1' y='-1' width='2' height='2'/>
	<circle id='gpPt5' stroke-width='0.222' stroke='currentColor' cx='0' cy='0' r='1'/>
	<use xlink:href='#gpPt5' id='gpPt6' fill='currentColor' stroke='none'/>
	<path id='gpPt7' stroke-width='0.222' stroke='currentColor' d='M0,-1.33 L-1.33,0.67 L1.33,0.67 z'/>
	<use xlink:href='#gpPt7' id='gpPt8' fill='currentColor' stroke='none'/>
	<use xlink:href='#gpPt7' id='gpPt9' stroke='currentColor' transform='rotate(180)'/>
	<use xlink:href='#gpPt9' id='gpPt10' fill='currentColor' stroke='none'/>
	<use xlink:href='#gpPt3' id='gpPt11' stroke='currentColor' transform='rotate(45)'/>
	<use xlink:href='#gpPt11' id='gpPt12' fill='currentColor' stroke='none'/>
	<path id='gpPt13' stroke-width='0.222' stroke='currentColor' d='M0,1.330 L1.265,0.411 L0.782,-1.067 L-0.782,-1.076 L-1.265,0.411 z'/>
	<use xlink:href='#gpPt13' id='gpPt14' fill='currentColor' stroke='none'/>
	<filter id='textbox' filterUnits='objectBoundingBox' x='0' y='0' height='1' width='1'>
	  <feFlood flood-color='#FFFFFF' flood-opacity='1' result='bgnd'/>
	  <feComposite in='SourceGraphic' in2='bgnd' operator='atop'/>
	</filter>
	<filter id='greybox' filterUnits='objectBoundingBox' x='0' y='0' height='1' width='1'>
	  <feFlood flood-color='lightgrey' flood-opacity='1' result='grey'/>
	  <feComposite in='SourceGraphic' in2='grey' operator='atop'/>
	</filter>
</defs>
<g fill="none" color="#FFFFFF" stroke="black" stroke-width="1.00" stroke-linecap="butt" stroke-linejoin="miter">
</g>
<g fill="none" color="black" stroke="currentColor" stroke-width="1.00" stroke-linecap="butt" stroke-linejoin="miter">
	<path stroke='black'  d='M37.3,440.1 L46.3,440.1 M615.0,440.1 L606.0,440.1  '/>	<g transform="translate(29.0,444.0)" stroke="none" fill="black" font-family="Arial" font-size="12.00"  text-anchor="end">
		<text><tspan font-family="Arial" > 0</tspan></text>
	</g>
</g>
<g fill="none" color="black" stroke="currentColor" stroke-width="1.00" stroke-linecap="butt" stroke-linejoin="miter">
	<path stroke='black'  d='M37.3,363.8 L46.3,363.8 M615.0,363.8 L606.0,363.8  '/>	<g transform="translate(29.0,367.7)" stroke="none" fill="black" font-family="Arial" font-size="12.00"  text-anchor="end">
		<text><tspan font-family="Arial" > 1</tspan></text>
	</g>
</g>
<g fill="none" color="black" stroke="currentColor" stroke-width="1.00" stroke-linecap="butt" stroke-linejoin="miter">
	<path stroke='black'  d='M37.3,287.5 L46.3,287.5 M615.0,287.5 L606.0,287.5  '/>	<g transform="translate(29.0,291.4)" stroke="none" fill="black" font-family="Arial" font-size="12.00"  text-anchor="end">
		<text><tspan font-family="Arial" > 2</tspan></text>
	</g>
</g>
<g fill="none" color="black" stroke="currentColor" stroke-width="1.00" stroke-linecap="butt" stroke-linejoin="miter">
	<path stroke='black'  d='M37.3,211.2 L46.3,211.2 M615.0,211.2 L606.0,211.2  '/>	<g transform="translate(29.0,215.1)" stroke="none" fill="black" font-family="Arial" font-size="12.00"  text-anchor="end">
		<text><tspan font-family="Arial" > 3</tspan></text>
	</g>
</g>
<g fill="none" color="black" stroke="currentColor" stroke-width="1.00" stroke-linecap="butt" stroke-linejoin="miter">
	<path stroke='black'  d='M37.3,134.9 L46.3,134.9 M615.0,134.9 L606.0,134.9  '/>	<g transform="translate(29.0,138.8)" stroke="none" fill="black" font-family="Arial" font-size="12.00"  text-anchor="end">
		<text><tspan font-family="Arial" > 4</tspan></text>
	</g>
</g>
<g fill="none" color="black" stroke="currentColor" stroke-width="1.00" stroke-linecap="butt" stroke-linejoin="miter">
	<path stroke='black'  d='M37.3,58.7 L46.3,58.7 M615.0,58.7 L606.0,58.7  '/>	<g transform="translate(29.0,62.6)" stroke="none" fill="black" font-family="Arial" font-size="12.00"  text-anchor="end">
		<text><tspan font-family="Arial" > 5</tspan></text>
	</g>
</g>
<g fill="none" color="black" stroke="currentColor" stroke-width="1.00" stroke-linecap="butt" stroke-linejoin="miter">
	<path stroke='black'  d='M37.3,446.0 L37.3,437.0 M37.3,18.1 L37.3,27.1  '/>	<g transform="translate(37.3,467.9)" stroke="none" fill="black" font-family="Arial" font-size="12.00"  text-anchor="middle">
		<text><tspan font-family="Arial" > 0</tspan></text>
	</g>
</g>
<g fill="none" color="black" stroke="currentColor" stroke-width="1.00" stroke-linecap="butt" stroke-linejoin="miter">
	<path stroke='black'  d='M95.7,446.0 L95.7,437.0 M95.7,18.1 L95.7,27.1  '/>	<g transform="translate(95.7,467.9)" stroke="none" fill="black" font-family="Arial" font-size="12.00"  text-anchor="middle">
		<text><tspan font-family="Arial" > 10</tspan></text>
	</g>
</g>
<g fill="none" color="black" stroke="currentColor" stroke-width="1.00" stroke-linecap="butt" stroke-linejoin="miter">
	<path stroke='black'  d='M154.0,446.0 L154.0,437.0 M154.0,18.1 L154.0,27.1  '/>	<g transform="translate(154.0,467.9)" stroke="none" fill="black" font-family="Arial" font-size="12.00"  text-anchor="middle">
		<text><tspan font-family="Arial" > 20</tspan></text>
	</g>
</g>
<g fill="none" color="black" stroke="currentColor" stroke-width="1.00" stroke-linecap="butt" stroke-linejoin="miter">
	<path stroke='black'  d='M212.4,446.0 L212.4,437.0 M212.4,18.1 L212.4,27.1  '/>	<g transform="translate(212.4,467.9)" stroke="none" fill="black" font-family="Arial" font-size="12.00"  text-anchor="middle">
		<text><tspan font-family="Arial" > 30</tspan></text>
	</g>
</g>
<g fill="none" color="black" stroke="currentColor" stroke-width="1.00" stroke-linecap="butt" stroke-linejoin="miter">
	<path stroke='black'  d='M270.7,446.0 L270.7,437.0 M270.7,18.1 L270.7,27.1  '/>	<g transform="translate(270.7,467.9)" stroke="none" fill="black" font-family="Arial" font-size="12.00"  text-anchor="middle">
		<text><tspan font-family="Arial" > 40</tspan></text>
	</g>
</g>
<g fill="none" color="black" stroke="currentColor" stroke-width="1.00" stroke-linecap="butt" stroke-linejoin="miter">
	<path stroke='black'  d='M329.1,446.0 L329.1,437.0 M329.1,18.1 L329.1,27.1  '/>	<g transform="translate(329.1,467.9)" stroke="none" fill="black" font-family="Arial" font-size="12.00"  text-anchor="middle">
		<text><tspan font-family="Arial" > 50</tspan></text>
	</g>
</g>
<g fill="none" color="black" stroke="currentColor" stroke-width="1.00" stroke-linecap="butt" stroke-linejoin="miter">
	<path stroke='black'  d='M387.4,446.0 L387.4,437.0 M387.4,18.1 L387.4,27.1  '/>	<g transform="translate(387.4,467.9)" stroke="none" fill="black" font-family="Arial" font-size="12.00"  text-anchor="middle">
		<text><tspan font-family="Arial" > 60</tspan></text>
	</g>
</g>
<g fill="none" color="black" stroke="currentColor" stroke-width="1.00" stroke-linecap="butt" stroke-linejoin="miter">
	<path stroke='black'  d='M445.8,446.0 L445.8,437.0 M445.8,18.1 L445.8,27.1  '/>	<g transform="translate(445.8,467.9)" stroke="none" fill="black" font-family="Arial" font-size="12.00"  text-anchor="middle">
		<text><tspan font-family="Arial" > 70</tspan></text>
	</g>
</g>
<g fill="none" color="black" stroke="currentColor" stroke-width="1.00" stroke-linecap="butt" stroke-linejoin="miter">
	<path stroke='black'  d='M504.1,446.0 L504.1,437.0 M504.1,18.1 L504.1,27.1  '/>	<g transform="translate(504.1,467.9)" stroke="none" fill="black" font-family="Arial" font-size="12.00"  text-anchor="middle">
		<text><tspan font-family="Arial" > 80</tspan></text>
	</g>
</g>
<g fill="none" color="black" stroke="currentColor" stroke-width="1.00" stroke-linecap="butt" stroke-linejoin="miter">
	<path stroke='black'  d='M562.5,446.0 L562.5,437.0 M562.5,18.1 L562.5,27.1  '/>	<g transform="translate(562.5,467.9)" stroke="none" fill="black" font-family="Arial" font-size="12.00"  text-anchor="middle">
		<text><tspan font-family="Arial" > 90</tspan></text>
	</g>
</g>
<g fill="none" color="black" stroke="currentColor" stroke-width="1.00" stroke-linecap="butt" stroke-linejoin="miter">
</g>
<g fill="none" color="black" stroke="currentColor" stroke-width="1.00" stroke-linecap="butt" stroke-linejoin="miter">
	<path stroke='black'  d='M37.3,18.1 L37.3,446.0 L615.0,446.0 L615.0,18.1 L37.3,18.1 Z  '/></g>
<g fill="none" color="black" stroke="currentColor" stroke-width="1.00" stroke-linecap="butt" stroke-linejoin="miter">
</g>
	<g id="gnuplot_plot_1" ><title>empty</title>
<g fill="none" color="black" stroke="currentColor" stroke-width="1.00" stroke-linecap="butt" stroke-linejoin="miter">
	<g transform="translate(267.3,485.9)" stroke="none" fill="black" font-family="Arial" font-size="12.00"  text-anchor="end">
		<text><tspan font-family="Arial" >empty</tspan></text>
	</g>
</g>
<g fill="none" color="black" stroke="currentColor" stroke-width="1.00" stroke-linecap="butt" stroke-linejoin="miter">
	<path stroke='rgb(148,   0, 211)'  d='M275.6,482.0 L317.8,482.0 M37.3,416.4 L43.1,436.8 L49.0,437.7 L54.8,437.3 L60.6,437.8 L66.5,437.7
		L72.3,437.7 L78.1,437.7 L84.0,437.7 L89.8,437.3 L95.7,437.6 L101.5,437.7 L107.3,437.2 L113.2,437.8
		L119.0,437.7 L124.8,437.7 L130.7,437.7 L136.5,437.7 L142.3,437.7 L148.2,437.8 L154.0,437.6 L159.8,435.9
		L165.7,437.7 L171.5,437.7 L177.3,437.7 L183.2,437.7 L189.0,437.7 L194.9,437.7 L200.7,437.6 L206.5,437.5
		L212.4,437.5 L218.2,437.5 L224.0,437.7 L229.9,436.9 L235.7,437.7 L241.5,437.6 L247.4,437.7 L253.2,437.7
		L259.0,437.7 L264.9,437.6 L270.7,437.7 L276.5,437.6 L282.4,437.6 L288.2,437.7 L294.1,437.7 L299.9,437.5
		L305.7,437.7 L311.6,436.6 L317.4,437.8 L323.2,437.1 L329.1,437.0 L334.9,437.7 L340.7,437.7 L346.6,437.7
		L352.4,437.5 L358.2,437.7 L364.1,437.5 L369.9,437.7 L375.8,437.3 L381.6,437.7 L387.4,437.4 L393.3,437.7
		L399.1,437.5 L404.9,437.6 L410.8,437.7 L416.6,437.7 L422.4,437.3 L428.3,437.5 L434.1,437.7 L439.9,436.9
		L445.8,437.7 L451.6,437.6 L457.4,437.7 L463.3,437.7 L469.1,437.3 L475.0,437.7 L480.8,437.7 L486.6,436.3
		L492.5,437.7 L498.3,437.6 L504.1,437.7 L510.0,437.7 L515.8,437.5 L521.6,437.7 L527.5,437.7 L533.3,437.2
		L539.1,436.8 L545.0,436.9 L550.8,437.6 L556.6,437.4 L562.5,437.6 L568.3,437.6 L574.2,437.4 L580.0,437.8
		L585.8,437.7 L591.7,437.1 L597.5,437.5 L603.3,436.9 L609.2,437.7 L615.0,437.1  '/></g>
	</g>
	<g id="gnuplot_plot_2" ><title>pages</title>
<g fill="none" color="black" stroke="currentColor" stroke-width="1.00" stroke-linecap="butt" stroke-linejoin="miter">
	<g transform="translate(367.6,485.9)" stroke="none" fill="black" font-family="Arial" font-size="12.00"  text-anchor="end">
		<text><tspan font-family="Arial" >pages</tspan></text>
	</g>
</g>
<g fill="none" color="black" stroke="currentColor" stroke-width="1.00" stroke-linecap="butt" stroke-linejoin="miter">
	<path stroke='rgb(  0, 158, 115)'  d='M375.9,482.0 L418.1,482.0 M37.3,228.1 L43.1,59.2 L49.0,32.5 L54.8,305.4 L60.6,192.5 L66.5,118.0
		L72.3,111.8 L78.1,192.3 L84.0,104.3 L89.8,123.4 L95.7,147.4 L101.5,201.8 L107.3,128.8 L113.2,201.8
		L119.0,101.2 L124.8,333.3 L130.7,61.9 L136.5,103.6 L142.3,235.1 L148.2,215.2 L154.0,61.1 L159.8,148.6
		L165.7,148.6 L171.5,282.0 L177.3,112.8 L183.2,200.6 L189.0,136.6 L194.9,330.0 L200.7,174.2 L206.5,60.9
		L212.4,130.1 L218.2,137.7 L224.0,162.0 L229.9,136.7 L235.7,306.4 L241.5,145.6 L247.4,108.6 L253.2,101.5
		L259.0,307.3 L264.9,120.6 L270.7,174.1 L276.5,138.3 L282.4,73.2 L288.2,331.3 L294.1,114.7 L299.9,314.0
		L305.7,160.0 L311.6,87.0 L317.4,104.3 L323.2,307.4 L329.1,327.9 L334.9,331.7 L340.7,242.6 L346.6,334.5
		L352.4,155.4 L358.2,201.1 L364.1,42.2 L369.9,151.5 L375.8,93.8 L381.6,277.2 L387.4,242.9 L393.3,176.3
		L399.1,177.9 L404.9,184.4 L410.8,242.6 L416.6,185.5 L422.4,171.4 L428.3,211.1 L434.1,222.1 L439.9,196.4
		L445.8,142.4 L451.6,178.8 L457.4,299.4 L463.3,190.3 L469.1,125.9 L475.0,223.9 L480.8,113.1 L486.6,205.4
		L492.5,155.3 L498.3,249.7 L504.1,317.6 L510.0,155.2 L515.8,182.1 L521.6,165.0 L527.5,126.1 L533.3,313.1
		L539.1,59.2 L545.0,26.3 L550.8,163.3 L556.6,323.0 L562.5,172.8 L568.3,324.7 L574.2,162.6 L580.0,186.9
		L585.8,223.6 L591.7,301.3 L597.5,184.0 L603.3,176.1 L609.2,145.0 L615.0,323.1  '/></g>
	</g>
<g fill="none" color="#FFFFFF" stroke="rgb(  0, 158, 115)" stroke-width="2.00" stroke-linecap="butt" stroke-linejoin="miter">
</g>
<g fill="none" color="black" stroke="currentColor" stroke-width="2.00" stroke-linecap="butt" stroke-linejoin="miter">
</g>
<g fill="none" color="black" stroke="black" stroke-width="1.00" stroke-linecap="butt" stroke-linejoin="miter">
</g>
<g fill="none" color="black" stroke="currentColor" stroke-width="1.00" stroke-linecap="butt" stroke-linejoin="miter">
	<path stroke='black'  d='M37.3,18.1 L37.3,446.0 L615.0,446.0 L615.0,18.1 L37.3,18.1 Z  '/></g>
<g fill="none" color="black" stroke="currentColor" stroke-width="1.00" stroke-linecap="butt" stroke-linejoin="miter">
</g>
</g>
</svg>
